src/64x64/places/folder-gruvbox-material-purple-gitlab.svg

<svg xmlns="http://www.w3.org/2000/svg" width="64" height="64" version="1">
 <rect style="opacity:0.2" width="56" height="36" x="4" y="22" rx="2.8" ry="2.8"/>
 <path style="fill:#945e80" d="M 4,46.2 C 4,47.751 5.2488,49 6.8,49 H 57.2 C 58.751,49 60,47.751 60,46.2 V 15.8 C 60,14.249 58.751,13 57.2,13 H 32 C 27.8,13 26.4,7 22.2,7 H 6.8 C 5.2488,7 4,8.2488 4,9.8"/>
 <rect style="opacity:0.2" width="56" height="36" x="4" y="20" rx="2.8" ry="2.8"/>
 <rect style="fill:#E5DFC8" width="48" height="22" x="8" y="16" rx="2.8" ry="2.8"/>
 <rect style="fill:#d3869b" width="56" height="36" x="4" y="21" rx="2.8" ry="2.8"/>
 <path style="opacity:0.1;fill:#E5DFC8" d="M 6.8008,7 C 5.2496,7 4,8.2496 4,9.8008 V 10.801 C 4,9.2496 5.2496,8 6.8008,8 H 22.199 C 26.399,8 27.8,14 32,14 H 57.199 C 58.75,14 60,15.25 60,16.801 V 15.801 C 60,14.25 58.75,13 57.199,13 H 32 C 27.8,13 26.399,7 22.199,7 Z"/>
 <path style="fill:#4A413F" d="m 25.110772,29.000198 c -0.168021,0 -0.336245,0.09512 -0.398989,0.28577 L 22.473,36 h 5.475716 l -2.438954,-6.714032 c -0.06277,-0.190646 -0.230969,-0.28577 -0.39899,-0.28577 z M 27.948716,36 32,49 36.051284,36 Z m 8.102568,0 H 41.527 l -2.238782,-6.714032 c -0.125489,-0.381291 -0.672432,-0.381291 -0.79798,0 z M 41.527,36 32,49 42.654057,41.360274 c 0.293973,-0.210714 0.417136,-0.584128 0.30487,-0.925156 z M 32,49 22.473,36 21.041073,40.435118 c -0.112266,0.341028 0.0109,0.714442 0.30487,0.925156 z"/>
</svg>

<?xml version="1.0" encoding="UTF-8"?>
<svg width="64" height="64" version="1" xmlns="http://www.w3.org/2000/svg">
 <rect x="4" y="22" width="56" height="36" rx="2.8" ry="2.8" opacity=".2"/>
 <path d="m4 46.2c0 1.551 1.2488 2.8 2.8 2.8h50.4c1.551 0 2.8-1.249 2.8-2.8v-30.4c0-1.551-1.249-2.8-2.8-2.8h-25.2c-4.2 0-5.6-6-9.8-6h-15.4c-1.5512 0-2.8 1.2488-2.8 2.8" fill="#945e80"/>
 <rect x="4" y="20" width="56" height="36" rx="2.8" ry="2.8" opacity=".2"/>
 <rect x="8" y="16" width="48" height="22" rx="2.8" ry="2.8" fill="#E5DFC8"/>
 <rect x="4" y="21" width="56" height="36" rx="2.8" ry="2.8" fill="#d3869b"/>
 <path d="m6.8008 7c-1.5512 0-2.8008 1.2496-2.8008 2.8008v1.0002c0-1.5514 1.2496-2.801 2.8008-2.801h15.398c4.2 0 5.601 6 9.801 6h25.199c1.551 0 2.801 1.25 2.801 2.801v-1c0-1.551-1.25-2.801-2.801-2.801h-25.199c-4.2 0-5.601-6-9.801-6z" fill="#E5DFC8" opacity=".1"/>
 <path d="m25.111 29c-0.16802 0-0.33624 0.09512-0.39899 0.28577l-2.2388 6.714h5.4757l-2.439-6.714c-0.06277-0.19065-0.23097-0.28577-0.39899-0.28577zm2.8379 6.9998 4.0513 13 4.0513-13zm8.1026 0h5.4757l-2.2388-6.714c-0.12549-0.38129-0.67243-0.38129-0.79798 0zm5.4757 0-9.527 13 10.654-7.6397c0.29397-0.21071 0.41714-0.58413 0.30487-0.92516zm-9.527 13-9.527-13-1.4319 4.4351c-0.11227 0.34103 0.0109 0.71444 0.30487 0.92516z" fill="#4A413F"/>
</svg>
